svgs/duotone/trash-can-list.svg

<svg xmlns="http://www.w3.org/2000/svg" viewBox="0 0 640 512"><!--! Font Awesome Pro 6.4.0 by @fontawesome - https://fontawesome.com License - https://fontawesome.com/license (Commercial License) Copyright 2023 Fonticons, Inc. --><defs><style>.fa-secondary{opacity:.4}</style></defs><path class="fa-primary" d="M119.2 17.7C124.6 6.8 135.7 0 147.8 0H268.2c12.1 0 23.2 6.8 28.6 17.7L304 32h80c17.7 0 32 14.3 32 32s-14.3 32-32 32H32C14.3 96 0 81.7 0 64S14.3 32 32 32h80l7.2-14.3zM480 128H608c17.7 0 32 14.3 32 32s-14.3 32-32 32H480c-17.7 0-32-14.3-32-32s14.3-32 32-32zm0 128h96c17.7 0 32 14.3 32 32s-14.3 32-32 32H480c-17.7 0-32-14.3-32-32s14.3-32 32-32zM448 416c0-17.7 14.3-32 32-32h32c17.7 0 32 14.3 32 32s-14.3 32-32 32H480c-17.7 0-32-14.3-32-32z"/><path class="fa-secondary" d="M384 96H32V464c0 26.5 21.5 48 48 48H336c26.5 0 48-21.5 48-48V96zM160 192V416c0 8.8-7.2 16-16 16s-16-7.2-16-16V192c0-8.8 7.2-16 16-16s16 7.2 16 16zm128 0V416c0 8.8-7.2 16-16 16s-16-7.2-16-16V192c0-8.8 7.2-16 16-16s16 7.2 16 16z"/></svg>

<svg xmlns="http://www.w3.org/2000/svg" viewBox="0 0 640 512"><!--! Font Awesome Pro 6.3.0 by @fontawesome - https://fontawesome.com License - https://fontawesome.com/license (Commercial License) Copyright 2023 Fonticons, Inc. --><defs><style>.fa-secondary{opacity:.4}</style></defs><path class="fa-primary" d="M119.2 17.69C124.6 6.848 135.7 0 147.8 0H268.2C280.3 0 291.4 6.848 296.8 17.69L304 32H384C401.7 32 416 46.33 416 64C416 81.67 401.7 96 384 96H32C14.33 96 0 81.67 0 64C0 46.33 14.33 32 32 32H112L119.2 17.69zM608 128C625.7 128 640 142.3 640 160C640 177.7 625.7 192 608 192H480C462.3 192 448 177.7 448 160C448 142.3 462.3 128 480 128H608zM576 256C593.7 256 608 270.3 608 288C608 305.7 593.7 320 576 320H480C462.3 320 448 305.7 448 288C448 270.3 462.3 256 480 256H576zM448 416C448 398.3 462.3 384 480 384H512C529.7 384 544 398.3 544 416C544 433.7 529.7 448 512 448H480C462.3 448 448 433.7 448 416z"/><path class="fa-secondary" d="M384 464C384 490.5 362.5 512 336 512H80C53.49 512 32 490.5 32 464V96H384V464zM160 192C160 183.2 152.8 176 144 176C135.2 176 128 183.2 128 192V416C128 424.8 135.2 432 144 432C152.8 432 160 424.8 160 416V192zM288 192C288 183.2 280.8 176 272 176C263.2 176 256 183.2 256 192V416C256 424.8 263.2 432 272 432C280.8 432 288 424.8 288 416V192z"/></svg>
